X:165
%%etbk:tnset id:55,pos:1,rep:3x,ant:
%%etbk:tnset id:260,pos:5,rep:2x,ant:
%%etbk:wsite http://www.thesession.org/tunes/display/59
%%etbk:pldat 2016-06-23T19:18,2016-06-20T18:01,2016-06-18T15:49,2016-05-05T14:30,2016-05-03T17:19,2016-03-11T17:09,2016-03-10T18:29,2016-03-09T16:09,2016-03-08T16:33,2016-03-07T18:42,2016-03-05T14:26,2016-02-26T17:28,2016-02-23T17:07,2016-02-08T18:17,2015-10-29T18:21,2015-10-27T15:29,2015-10-24T13:46,2015-10-20T16:57,2015-10-05T19:28,2015-06-26T17:21,2015-06-21T15:20,2015-05-28T18:12,2015-04-23T18:14,2015-03-13T19:03,2015-03-12T18:55,2015-03-10T17:02,2015-03-06T15:47,2015-02-16T19:19,2015-02-03T16:28,2015-01-27T16:39,2014-11-05T18:25,2014-11-02T14:42,2014-10-28T16:47,2014-10-13T18:30,2014-08-21T18:54,2014-08-20T18:52,2014-08-18T18:47,2014-06-25T15:40,2014-06-22T16:30,2014-06-10T18:12,2014-06-09T15:01,2014-03-05T18:14,2014-03-01T17:29,2014-02-27T18:42,2014-02-20T18:41,2013-10-30T16:42,2013-10-29T16:16,2013-10-27T14:21,2013-10-23T19:09,2013-10-18T15:50,2013-10-13T14:56,2013-10-09T15:23,2013-10-05T15:04
T: Lady Anne Montgomery
Z: Piano Box Version by Martin Fleischmann
H: Created 2013-02-19 /  Last Modified 2013-02-19
M: 4/4
L: 1/8
R: reel
K: Dmaj
|: "D"!2!F!4!A!1!DA FADA | !2!F!1!A!4!dA !2!BAd!1!A | !3!F2AF "A"!2!EDEF | "D"!1!D!2!B,!1!A,!2!B, !1!D2!4!AG |
 "D"!2!F!4!A!1!DA FADA | !2!F!1!A!4!dA !2!BABc | !4!dB!1!A!3!F "A"!2!EDEF | "D"!1!D!2!B,!1!A,!2!B, !1!D4:|
|: "D"!3!f3f fede | !3!fe!1!d!2!B !1!A!2!B!1!de | !3!f3f fede | !3!f2af "A"!2!e{g}ede |
"D"!3!f3f fede | !3!fe!1!d!2!B !1!A!2!B!1!de | !3!fde!1!d !2!B!4!d!1!A!4!d | "A"!2!egfe "D"!1!d4:|


